!!!COM: Corelli, Arcangelo
!!!OTL: 
!!!ONM: Opus 6, No. 7
!!!OMV: 1
!!!CDT: 1653/2/17/-1713/1/8/
!!!OCY: Italia
**kern	**kern	**kern	**kern	**kern	**kern	**kern
*clefC	*clefG	*clefG	*clefG	*clefC	*clefG	*clefG
*k[f#c#]	*k[f#c#]	*k[f#c#]	*k[f#c#]	*k[f#c#]	*k[f#c#]	*k[f#c#]
*D:	*D:	*D:	*D:	*D:	*D:	*D:
*M4/4	*M4/4	*M4/4	*M4/4	*M4/4	*M4/4	*M4/4
=1	=1	=1	=1	=1	=1	=1
4D	4d	4ff#	4aa	4D	4ff#	4aa
8.r	8.r	8.r	8.r	8.r	8.r	8.r
16d	16f#	16ff#	16aa	16d	16ff#	16aa
4d	4f#	4ff#	4aa	4d	4ff#	4aa
4A	4e	4cc#	4aa	4A	4cc#	4aa
=2	=2	=2	=2	=2	=2	=2
4B	4d	4dd	4ff#	4B	4dd	4ff#
4r	4r	4r	4r	4r	4r	4r
4BB	4B	4dd	4ff#	4BB	4dd	4ff#
8.r	8.r	8.r	8.r	8.r	8.r	8.r
16B	16d	16dd	16ff#	16B	16dd	16ff#
=3	=3	=3	=3	=3	=3	=3
4B	4d	4dd	4ff#	4B	4dd	4ff#
4F#	4d	4dd	4aa	4F#	4dd	4aa
4G	8.d	8.b	8.bb	4G	8.b	8.bb
.	16e	16cc#	16aa	.	16cc#	16aa
4D	8.f#	8.dd	8.gg	4D	8.dd	8.gg
.	16g	16dd	16ff#	.	16dd	16ff#
=4	=4	=4	=4	=4	=4	=4
4A	4a	4a	4ee	4A	4cc#	4ee
4r	4r	4r	4r	4r	4r	4r
4F#	4d	4dd	4aa	4F#	4dd	4aa
4r	4r	4r	4r	4r	4r	4r
=5	=5	=5	=5	=5	=5	=5
4G	4g	4dd	4bb	4G	4dd	4bb
4r	4r	4r	4r	4r	4r	4r
4G#	4e	4b	4ee	4G#	4b	4ee
4r	4r	4r	4r	4r	4r	4r
=6	=6	=6	=6	=6	=6	=6
4A	4a	4cc#	4ee	4A	4cc#	4ee
4r	4r	4r	4r	4r	4r	4r
4F#	4d	8.dd	4aa	4F#	8.dd	4aa
.	.	16ff#	.	.	16ff#	.
8.r	8.r	8.dd	8.r	8.r	8.dd	8.r
16F#	16d	16cc#	16aa	16F#	16cc#	16aa
=7	=7	=7	=7	=7	=7	=7
4G	8.d	8.b	8.bb	4G	8.b	8.bb
.	16e	16cc#	16aa	.	16cc#	16aa
4D	8.f#	8.dd	8.gg	4D	8.dd	8.gg
.	16g	16dd	16ff#	.	16dd	16ff#
4A	4.a	4.dd	2ee	4A	4.dd	2ee
4AA	.	.	.	4AA	.	.
.	8a	8cc#	.	.	8cc#	.
=8	=8	=8	=8	=8	=8	=8
2D	2f#	2dd	2dd	2D	2dd	2dd
4F#	4d	8.dd	4aa	4F#	8.dd	4aa
.	.	16ff#	.	.	16ff#	.
8.r	8.r	8.dd	8.r	8.r	8.dd	8.r
16F#	16d	16cc#	16aa	16F#	16cc#	16aa
=9	=9	=9	=9	=9	=9	=9
4G	8.d	8.b	8.bb	4G	8.b	8.bb
.	16e	16cc#	16aa	.	16cc#	16aa
4D	8.f#	8.dd	8.gg	4D	8.dd	8.gg
.	16g	16dd	16ff#	.	16dd	16ff#
4A	4.a	4.dd	2ee	4A	4.dd	2ee
4AA	.	.	.	4AA	.	.
.	8a	8cc#	.	.	8cc#	.
==	==	==	==	==	==	==
*-	*-	*-	*-	*-	*-	*-
!!!RWG: This file only contains pitch and duration data.
!!!RWG: Transposing instruments are not transposed.
!!!RWG: Durations of rests and tied notes may be interpreted.
!!!RWG: Key is interpreted using the Humdrum key tool.
!!!SCA: 
!!!YOR: Chrysander Edition
!!!AGN: concerto grosso
!!!AFT: stage1
!!!ENC: F. Bennion
!!!END: 1997/04/15
!!!AST: baroque
!!!YEC: Copyright 1994, Center for Computer Assisted Research in the Humanities
!!!YEM: Rights to all derivative electronic formats reserved.
!!!YEM: Refer to licensing agreement for further details.
!!!YEN: United States of America
!!!EED: W.B. Hewlett
!!!KEY: 1958752516
!!!EMD: Converted from MuseData to Humdrum Aug 9, 1999, by Bret Aarden using muse2kern.
!!!VTS: 853562431
